X:1
T:Title
%%score { 1 | 2 }
L:1/8
M:4/4
K:Eb
V:1 treble nm="Grand Piano"
V:2 bass 
V:1
 z4 z2[Q:1/4=106] E>F | G2 G2 [GB]2 [EG]>[EG] | [EG]2 [DF]2 [DF]2 [DF]>[EG] | %3
 [FA]2 [FA]2 [DAc]2 [DAc]>[DAc] | [Ac]2 [GB]2 [GB]2 [EG]>[FA] | [GB]2 [GB]2 [Ge]2 [Ge]>[Ge] | %6
 [Ae]2 [Ac]2 [GB]2 [GB]>[GB] | [EAc]2 [EAc]2 [EGB]2 [B,EG]>[G,E] |[M:7/8] [B,EG]2 [A,DF]2 [G,E]3 | %9
[M:1/4] [B,EG]>[B,EG] |[M:4/4] [EG]2 [DF]2 [DF]2 [FA]>[FA] | [FA]2 G2 G2 B>B | %12
 c2 c2 [=Ae]2 [Ae]>[Ae] |[M:9/8] [Fd]2 [Ec]- [Ec] [DB]2- [DB][AB]>[AB] | %14
[M:4/4] [Ge]2 [Ae]2 [Ge]2 [GB]>[GB] | [Bd]2 c2 c2 c>c | [GB]2 [Ac]2 [GB]2 [B,EG]>[G,E] | %17
[M:3/4] [B,EG]2 [A,DF]2 [G,E]2 |] %18
V:2
 z4 z2 [E,G,]>[E,A,E] | [E,B,E]2 [E,B,E]2 [E,E]2 [E,B,]>[E,B,] | %2
 [B,,B,]2 [B,,B,]2 [B,,B,]2 [B,,B,]>[B,,B,] | [B,,B,]2 [B,,B,]2 B,,2 B,,>B,, | %4
 [E,E]2 [E,E]2 [E,E]2 [E,B,]>[E,B,] | [E,E]2 [E,E]2 [E,B,]2 [E,B,]>[E,B,] | %6
 [A,C]2 [A,E]2 [E,E]2 [E,E]>[E,E] | A,2 A,2 E,2 E,>E, |[M:7/8] B,,2 B,,2 E,3 |[M:1/4] E,>E, | %10
[M:4/4] [B,,B,]2 [B,,B,]2 [B,,B,]2 [B,,B,]>[B,,B,] | [E,B,]2 [E,B,E]2 [E,B,E]2 [E,G,E]>[E,G,E] | %12
 [A,E]2 [A,E]2 [F,C]2 [F,C]>[F,C] | %13
[M:9/8] [F,B,]2 [F,=A,]- [F,A,] [B,,B,]2- [B,,B,][B,,B,]>[B,,B,] | %14
[M:4/4] [E,B,]2 [E,C]2 [E,B,]2 [E,E]>[E,E] | [A,E]2 [A,EA]2 [A,EA]2 [A,EA]>[A,EA] | %16
 [E,E]2 [E,E]2 [E,E]2 E,>E, |[M:3/4] B,,2 B,,2 E,2 |] %18

